icons/svg/subway/subway_philadelphia_patco.svg

<?xml version="1.0" encoding="UTF-8" standalone="no"?>
<svg
   xmlns:dc="http://purl.org/dc/elements/1.1/"
   xmlns:cc="http://creativecommons.org/ns#"
   xmlns:rdf="http://www.w3.org/1999/02/22-rdf-syntax-ns#"
   xmlns:svg="http://www.w3.org/2000/svg"
   xmlns="http://www.w3.org/2000/svg"
   xmlns:sodipodi="http://sodipodi.sourceforge.net/DTD/sodipodi-0.dtd"
   xmlns:inkscape="http://www.inkscape.org/namespaces/inkscape"
   width="16"
   height="16"
   id="svg2"
   version="1.1"
   inkscape:version="0.91 r13725"
   sodipodi:docname="subway_philadelphia_patco.svg">
  <defs
     id="defs13">
    <linearGradient
       gradientTransform="matrix(0.08596979,0,0,0.08596979,0.67480439,1.9432845)"
       x1="87.101639"
       y1="121.69753"
       x2="87.260849"
       y2="1.2385538"
       id="l1"
       gradientUnits="userSpaceOnUse">
      <stop
         style="stop-color:#e92203;stop-opacity:1"
         offset="0"
         id="stop5" />
      <stop
         style="stop-color:#ff0000;stop-opacity:0.64628822"
         offset="1"
         id="stop7" />
    </linearGradient>
    <linearGradient
       gradientTransform="matrix(0.08400469,0,0,0.08400469,0.8422306,2.0814238)"
       x1="87.101639"
       y1="121.69753"
       x2="87.260849"
       y2="1.2385538"
       id="l1-2"
       gradientUnits="userSpaceOnUse">
      <stop
         style="stop-color:#e92203;stop-opacity:1"
         offset="0"
         id="stop5-8" />
      <stop
         style="stop-color:#ff0000;stop-opacity:0.64628822"
         offset="1"
         id="stop7-4" />
    </linearGradient>
  </defs>
  <sodipodi:namedview
     pagecolor="#ffffff"
     bordercolor="#666666"
     borderopacity="1"
     objecttolerance="10"
     gridtolerance="10"
     guidetolerance="10"
     inkscape:pageopacity="0"
     inkscape:pageshadow="2"
     inkscape:window-width="1920"
     inkscape:window-height="1006"
     id="namedview11"
     showgrid="true"
     inkscape:zoom="45.254834"
     inkscape:cx="8.8868344"
     inkscape:cy="8.2871533"
     inkscape:window-x="1920"
     inkscape:window-y="0"
     inkscape:window-maximized="1"
     inkscape:current-layer="svg2"
     showguides="false"
     inkscape:snap-global="false">
    <sodipodi:guide
       position="0,0"
       orientation="0,580"
       id="guide2989" />
    <sodipodi:guide
       position="580,0"
       orientation="-580,0"
       id="guide2991" />
    <sodipodi:guide
       position="580,580"
       orientation="0,-580"
       id="guide2993" />
    <sodipodi:guide
       position="0,580"
       orientation="580,0"
       id="guide2995" />
    <sodipodi:guide
       position="0,0"
       orientation="0,580"
       id="guide2997" />
    <sodipodi:guide
       position="580,0"
       orientation="-580,0"
       id="guide2999" />
    <sodipodi:guide
       position="580,580"
       orientation="0,-580"
       id="guide3001" />
    <sodipodi:guide
       position="0,580"
       orientation="580,0"
       id="guide3003" />
    <inkscape:grid
       type="xygrid"
       id="grid3013"
       empspacing="5"
       visible="true"
       enabled="true"
       snapvisiblegridlinesonly="true" />
  </sodipodi:namedview>
  <metadata
     id="metadata2975">image/svg+xmlen<rdf:RDF>
  <cc:Work
     rdf:about="">
    <dc:format>image/svg+xml</dc:format>
    <dc:type
       rdf:resource="http://purl.org/dc/dcmitype/StillImage" />
    <dc:title></dc:title>
  </cc:Work>
</rdf:RDF>
</metadata>
  <path
     sodipodi:type="inkscape:offset"
     inkscape:radius="-0.13831732"
     inkscape:original="M 7.8359375 3.9453125 C 5.4096794 3.9840686 3.0644074 4.8371121 2.1484375 6.7148438 C 1.9604041 7.100308 1.861591 7.5464723 1.8613281 7.9960938 C 1.8611403 8.3119496 1.8974287 8.5852606 1.9570312 8.7792969 C 2.010427 8.9531279 2.0721172 9.0943353 2.1386719 9.2382812 C 2.1719492 9.3102542 2.2043107 9.3760988 2.2421875 9.4453125 C 2.2611259 9.4799194 2.2800013 9.5137125 2.3125 9.5625 C 2.3449987 9.6112875 2.289856 9.6568012 2.6113281 9.8554688 C 2.6115837 9.8556266 2.7952735 9.9230062 2.890625 9.9570312 C 2.9569095 10.16867 3.0249213 10.41243 3.1308594 10.498047 C 3.3643336 10.686764 3.6065689 10.854502 3.8671875 11.009766 A 0.90714853 0.90714853 0 0 0 3.8691406 11.009766 L 4.1425781 11.171875 A 0.90714853 0.90714853 0 0 0 4.8789062 11.255859 C 5.0818031 11.523517 5.3253962 11.652147 5.4296875 11.683594 C 5.5510404 11.720185 5.6235631 11.733508 5.7207031 11.757812 C 6.2235621 11.883628 6.7204414 11.963854 7.2460938 12.009766 C 7.7602605 12.05467 8.5548793 12.03913 9.0683594 11.976562 C 10.065574 11.855041 10.958458 11.605814 11.755859 11.207031 C 12.300817 10.934501 12.73498 10.629926 13.132812 10.230469 C 13.441635 9.9203865 13.68411 9.5874384 13.855469 9.2246094 C 14.278763 8.328369 14.204927 7.2647064 13.675781 6.421875 C 12.988568 5.3272707 11.758491 4.6054354 10.283203 4.2285156 C 9.4741144 4.0218015 8.6458282 3.9323757 7.8359375 3.9453125 z "
     style="fill:#fefefe;fill-opacity:1"
     id="path4548"
     d="M 7.8378906,4.0839844 C 5.4426174,4.1222455 3.1558562,4.9664387 2.2734375,6.7753906 2.0954716,7.1402167 2.0002511,7.566684 2,7.9960938 c -1.815e-4,0.3052142 0.036319,0.5679375 0.089844,0.7421874 0.050789,0.1653444 0.1080704,0.2991842 0.1738281,0.4414063 0.032428,0.070136 0.06354,0.1333072 0.099609,0.1992187 0.018562,0.033919 0.034593,0.062595 0.064453,0.1074219 0.023631,0.035475 0.028721,0.066082 0.03125,0.074219 0.00253,0.00814 1.202e-4,0.00375 0.00586,0.011719 0.010956,0.015218 0.070904,0.071018 0.2089843,0.1582032 0.00468,0.00172 0.00881,0.00336 0.015625,0.00586 0.018683,0.00685 0.045351,0.01681 0.074219,0.027344 0.057736,0.021067 0.1268925,0.045752 0.1738281,0.0625 a 0.13833115,0.13833115 0 0 1 0.085937,0.089844 c 0.033636,0.1073974 0.06635,0.2189444 0.1015625,0.3085934 0.035213,0.08965 0.079437,0.154449 0.09375,0.166016 0.2264256,0.18302 0.4598804,0.344997 0.7128906,0.496094 a 0.13833115,0.13833115 0 0 1 0.00391,0.002 c 7.925e-4,4.72e-4 0.00116,0.0015 0.00195,0.002 a 0.13833115,0.13833115 0 0 1 0.00195,0 l 0.2734375,0.162109 c 0.1856104,0.109841 0.4194223,0.135535 0.625,0.07031 a 0.13833115,0.13833115 0 0 1 0.1503906,0.04883 c 0.1835889,0.242187 0.4189952,0.36037 0.4804688,0.378906 0.1156548,0.03487 0.1838375,0.04692 0.2851562,0.07227 0.4954773,0.123969 0.984641,0.202693 1.5039063,0.248047 0.4991066,0.04359 1.2937668,0.02958 1.7929687,-0.03125 0.9845138,-0.119974 1.8615018,-0.36524 2.6425778,-0.75586 0.534371,-0.267235 0.954664,-0.562457 1.341797,-0.951172 C 13.33459,9.8321573 13.566673,9.5128307 13.730469,9.1660156 14.133062,8.3136042 14.062956,7.2994496 13.558594,6.4960938 12.896342,5.4412474 11.700166,4.7342816 10.248047,4.3632812 9.4516244,4.1598032 8.6360977,4.0712342 7.8378906,4.0839844 Z" />
  <path
     style="fill:#ed154b;fill-opacity:1"
     d="M 7.8496094 4.8515625 C 5.6529246 4.8866515 3.6262967 5.7533035 2.9628906 7.1132812 C 2.8013593 7.4444167 2.7678113 7.5971934 2.7675781 7.9960938 C 2.7673967 8.3011504 2.7728197 8.3463357 2.8242188 8.5136719 C 2.8789362 8.6918041 3.0492361 9.0600962 3.0878906 9.0839844 C 3.098347 9.0904459 3.1668859 9.0227486 3.2402344 8.9335938 C 3.4288616 8.7043215 3.934243 8.201938 4.2460938 7.9355469 C 4.7698413 7.4881446 5.3077645 7.101269 5.7949219 6.8203125 C 7.3960497 5.8969001 9.3338941 5.4883965 10.802734 5.7636719 C 11.595373 5.912223 12.082031 6.2570234 12.082031 6.6738281 C 12.082031 6.9683684 11.850106 7.2317374 11.347656 7.5078125 C 10.591854 7.9230925 9.0105025 8.3203125 8.1132812 8.3203125 C 8.0096162 8.3203125 7.9300369 8.3160869 7.9355469 8.3105469 C 7.9410634 8.3050349 8.0536953 8.2858021 8.1855469 8.2675781 C 9.3986885 8.0999553 10.677712 7.6891873 11.167969 7.3105469 C 11.420212 7.1157344 11.558594 6.8512296 11.558594 6.5625 C 11.558594 6.2490168 11.367293 6.0520087 10.947266 5.9296875 C 10.757342 5.8743501 10.136494 5.8483315 9.9160156 5.8867188 C 9.4275633 5.9717799 8.7534698 6.3272451 8.1308594 6.828125 C 7.8128934 7.0839222 7.299658 7.5950161 7.0761719 7.8769531 C 6.5732591 8.5114032 6.0987405 9.3743537 5.6875 10.40625 C 5.5240791 10.816306 5.4983088 10.766085 5.9414062 10.876953 C 6.397575 10.991086 6.8398506 11.063163 7.3242188 11.105469 C 7.6520405 11.134099 8.6248805 11.116882 8.9589844 11.076172 C 9.8741615 10.964644 10.658439 10.74214 11.349609 10.396484 C 11.836764 10.15286 12.150677 9.9307881 12.490234 9.5898438 C 12.75213 9.3268787 12.903141 9.1174153 13.035156 8.8378906 C 13.335041 8.2029448 13.290037 7.5124881 12.908203 6.9042969 C 12.395204 6.0871835 11.373813 5.4434459 10.058594 5.1074219 C 9.3326462 4.9219494 8.5818376 4.8398662 7.8496094 4.8515625 z M 9.3457031 5.828125 C 9.3269316 5.8264805 9.2412806 5.8405371 9.0917969 5.8691406 C 8.0996044 6.0589843 7.2196623 6.4267819 6.328125 7.0234375 C 5.8242039 7.3606856 5.4771457 7.6497753 4.9863281 8.140625 C 4.5102247 8.6167609 4.1706259 9.0223362 3.8574219 9.4882812 C 3.6948227 9.7301706 3.6730531 9.7702438 3.7011719 9.7929688 C 3.900516 9.9540982 4.1038343 10.094521 4.3320312 10.230469 L 4.6054688 10.392578 L 4.8222656 10.037109 C 5.5964574 8.7608424 6.349847 7.8115234 7.1464844 7.109375 C 7.9050584 6.4407711 8.5621758 6.0469487 9.1972656 5.8789062 C 9.3156863 5.8476023 9.3644747 5.8297695 9.3457031 5.828125 z "
     id="path2173" />
</svg>

<svg width="16" height="16" viewBox="0 0 16 16" fill="none" xmlns="http://www.w3.org/2000/svg">
<path d="M7.83789 4.08399C5.44262 4.12226 3.15586 4.96645 2.27344 6.7754C2.09547 7.14023 2.00025 7.56669 2 7.9961C1.99982 8.30132 2.03632 8.56404 2.08984 8.73829C2.14063 8.90364 2.19792 9.03748 2.26367 9.1797C2.2961 9.24983 2.32721 9.313 2.36328 9.37892C2.38184 9.41284 2.39787 9.44151 2.42773 9.48634C2.45137 9.52181 2.45646 9.55242 2.45898 9.56056C2.46151 9.5687 2.4591 9.56431 2.46484 9.57228C2.4758 9.58749 2.53575 9.64329 2.67383 9.73048C2.67851 9.7322 2.68264 9.73384 2.68945 9.73634C2.70814 9.74319 2.73481 9.75315 2.76367 9.76368C2.82141 9.78475 2.89057 9.80943 2.9375 9.82618C2.95784 9.83341 2.97621 9.84531 2.99113 9.86091C3.00605 9.87651 3.01712 9.89538 3.02344 9.91603C3.05707 10.0234 3.08979 10.135 3.125 10.2246C3.16021 10.3143 3.20444 10.3791 3.21875 10.3906C3.44518 10.5737 3.67863 10.7356 3.93164 10.8867C3.93296 10.8874 3.93426 10.888 3.93555 10.8887C3.93634 10.8892 3.93671 10.8902 3.9375 10.8907C3.93815 10.8907 3.9388 10.8907 3.93945 10.8907L4.21289 11.0528C4.3985 11.1627 4.63231 11.1884 4.83789 11.1231C4.86494 11.1149 4.89386 11.1152 4.92075 11.124C4.94764 11.1327 4.97121 11.1494 4.98828 11.172C5.17187 11.4142 5.40727 11.5323 5.46875 11.5509C5.5844 11.5858 5.65259 11.5978 5.7539 11.6232C6.24938 11.7471 6.73855 11.8258 7.25781 11.8712C7.75692 11.9148 8.55158 11.9008 9.05078 11.84C10.0353 11.72 10.9123 11.4747 11.6934 11.0841C12.2277 10.8169 12.648 10.5216 13.0352 10.1329C13.3346 9.83217 13.5667 9.51284 13.7305 9.16603C14.1331 8.31361 14.063 7.29946 13.5586 6.4961C12.8963 5.44126 11.7002 4.73429 10.248 4.36329C9.45163 4.15981 8.6361 4.07124 7.83789 4.08399Z" fill="#FEFEFE"/>
<path d="M7.84961 4.85156C5.65293 4.88664 3.6263 5.7533 2.96289 7.11327C2.80136 7.44441 2.76782 7.59719 2.76758 7.99609C2.7674 8.30114 2.77282 8.34633 2.82422 8.51366C2.87894 8.6918 3.04924 9.06009 3.08789 9.08398C3.09835 9.09044 3.16689 9.02274 3.24024 8.93359C3.42887 8.70431 3.93425 8.20193 4.2461 7.93554C4.76985 7.48814 5.30777 7.10126 5.79493 6.82031C7.39605 5.89689 9.3339 5.48839 10.8027 5.76367C11.5954 5.91222 12.082 6.25702 12.082 6.67382C12.082 6.96836 11.8501 7.23173 11.3477 7.50781C10.5919 7.92309 9.01051 8.32031 8.11329 8.32031C8.00962 8.32031 7.93004 8.31608 7.93555 8.31054C7.94107 8.30503 8.0537 8.2858 8.18555 8.26757C9.39869 8.09995 10.6777 7.68918 11.168 7.31054C11.4202 7.11573 11.5586 6.85122 11.5586 6.56249C11.5586 6.24901 11.3673 6.052 10.9473 5.92968C10.7573 5.87434 10.1365 5.84832 9.91602 5.88671C9.42757 5.97177 8.75347 6.32724 8.13086 6.82812C7.8129 7.08392 7.29966 7.59501 7.07618 7.87695C6.57326 8.5114 6.09874 9.37435 5.6875 10.4062C5.52408 10.8163 5.49831 10.7661 5.94141 10.8769C6.39758 10.9911 6.83985 11.0632 7.32422 11.1055C7.65204 11.1341 8.62488 11.1169 8.95899 11.0762C9.87417 10.9646 10.6584 10.7421 11.3496 10.3965C11.8368 10.1529 12.1507 9.93078 12.4902 9.58984C12.7521 9.32687 12.9031 9.11741 13.0352 8.83788C13.335 8.20294 13.29 7.51248 12.9082 6.90429C12.3952 6.08718 11.3738 5.44344 10.0586 5.10742C9.33265 4.92194 8.58184 4.83986 7.84961 4.85156ZM9.34571 5.82812C9.32694 5.82647 9.24128 5.84053 9.0918 5.86913C8.09961 6.05898 7.21967 6.42677 6.32813 7.02343C5.82421 7.36068 5.47715 7.64977 4.98633 8.14062C4.51023 8.61675 4.17063 9.02233 3.85743 9.48827C3.69483 9.73016 3.67306 9.77024 3.70118 9.79296C3.90052 9.95409 4.10384 10.0945 4.33204 10.2305L4.60547 10.3926L4.82227 10.0371C5.59646 8.76084 6.34985 7.81152 7.14649 7.10937C7.90506 6.44076 8.56218 6.04694 9.19727 5.8789C9.31569 5.8476 9.36448 5.82976 9.34571 5.82812Z" fill="#ED154B"/>
</svg>
